assets/icons/my-profile.svg

<svg width="32" height="32" viewBox="0 0 32 32" fill="none" xmlns="http://www.w3.org/2000/svg">
<rect width="32" height="32" rx="16" fill="white"/>
<path d="M6.40039 13.8668C6.40039 9.84418 6.40039 7.83285 7.65007 6.58317C8.89975 5.3335 10.9111 5.3335 14.9337 5.3335H17.0671C21.0897 5.3335 23.101 5.3335 24.3507 6.58317C25.6004 7.83285 25.6004 9.84418 25.6004 13.8668V18.1335C25.6004 22.1561 25.6004 24.1675 24.3507 25.4172C23.101 26.6668 21.0897 26.6668 17.0671 26.6668H14.9337C10.9111 26.6668 8.89975 26.6668 7.65007 25.4172C6.40039 24.1675 6.40039 22.1561 6.40039 18.1335V13.8668Z" fill="#3971F3"/>
<path d="M20.8201 20.8012C21.0068 20.6556 21.1761 20.4863 21.5147 20.1477L25.736 15.9265C25.838 15.8244 25.7913 15.6487 25.6549 15.6014C25.1567 15.4285 24.5085 15.1039 23.9022 14.4976C23.2959 13.8913 22.9713 13.2432 22.7985 12.7449C22.7512 12.6085 22.5754 12.5618 22.4733 12.6639L18.2521 16.8851C17.9135 17.2237 17.7442 17.393 17.5986 17.5797C17.4269 17.7999 17.2796 18.0382 17.1595 18.2903C17.0576 18.504 16.9819 18.7311 16.8305 19.1854L16.6348 19.7724L16.3237 20.7058L16.0319 21.5809C15.9574 21.8045 16.0156 22.051 16.1822 22.2176C16.3489 22.3842 16.5953 22.4424 16.8189 22.3679L17.6941 22.0762L18.6275 21.765L19.2145 21.5694L19.2145 21.5694C19.6687 21.4179 19.8959 21.3422 20.1096 21.2404C20.3617 21.1202 20.5999 20.973 20.8201 20.8012Z" fill="white"/>
<path d="M27.0576 14.6048C27.9586 13.7039 27.9586 12.2432 27.0576 11.3422C26.1567 10.4413 24.696 10.4413 23.795 11.3422L23.6593 11.4779C23.5283 11.6089 23.469 11.7918 23.5017 11.9741C23.5223 12.0888 23.5605 12.2564 23.6299 12.4565C23.7687 12.8565 24.0308 13.3817 24.5245 13.8754C25.0181 14.3691 25.5433 14.6312 25.9434 14.77C26.1434 14.8394 26.3111 14.8775 26.4258 14.8981C26.608 14.9308 26.791 14.8715 26.9219 14.7405L27.0576 14.6048Z" fill="white"/>
<path fill-rule="evenodd" clip-rule="evenodd" d="M10.9336 12.8C10.9336 12.3582 11.2918 12 11.7336 12H18.6669C19.1088 12 19.4669 12.3582 19.4669 12.8C19.4669 13.2418 19.1088 13.6 18.6669 13.6H11.7336C11.2918 13.6 10.9336 13.2418 10.9336 12.8ZM10.9336 17.0667C10.9336 16.6248 11.2918 16.2667 11.7336 16.2667H14.9336C15.3754 16.2667 15.7336 16.6248 15.7336 17.0667C15.7336 17.5085 15.3754 17.8667 14.9336 17.8667H11.7336C11.2918 17.8667 10.9336 17.5085 10.9336 17.0667ZM10.9336 21.3333C10.9336 20.8915 11.2918 20.5333 11.7336 20.5333H13.3336C13.7754 20.5333 14.1336 20.8915 14.1336 21.3333C14.1336 21.7752 13.7754 22.1333 13.3336 22.1333H11.7336C11.2918 22.1333 10.9336 21.7752 10.9336 21.3333Z" fill="white"/>
</svg>

<svg xmlns="http://www.w3.org/2000/svg" width="32" height="32" fill="none" data-c="1"><rect width="32" height="32" fill="#fff" rx="16"/><path fill="#3971F3" d="M6.4 13.867c0-4.023 0-6.034 1.25-7.284s3.261-1.25 7.284-1.25h2.133c4.023 0 6.034 0 7.284 1.25s1.25 3.261 1.25 7.284v4.267c0 4.022 0 6.034-1.25 7.283s-3.261 1.25-7.284 1.25h-2.133c-4.023 0-6.034 0-7.284-1.25s-1.25-3.26-1.25-7.283z"/><path fill="#fff" d="M20.82 20.801c.187-.145.356-.315.695-.653l4.221-4.221c.102-.103.055-.278-.081-.326a4.6 4.6 0 0 1-1.753-1.103 4.6 4.6 0 0 1-1.104-1.753c-.047-.136-.223-.183-.325-.081l-4.22 4.221c-.34.339-.509.508-.654.695q-.259.331-.44.71c-.101.214-.177.441-.328.895l-.196.587-.311.934-.292.875a.622.622 0 0 0 .787.787l.875-.292.934-.311.587-.196c.454-.151.68-.227.895-.329q.379-.18.71-.439M27.058 14.605a2.307 2.307 0 1 0-3.263-3.263l-.136.136a.56.56 0 0 0-.157.496c.02.115.059.282.128.482.139.4.4.926.895 1.42a3.74 3.74 0 0 0 1.418.894c.2.07.368.107.483.128a.56.56 0 0 0 .496-.157z"/><path fill="#fff" fill-rule="evenodd" d="M10.934 12.8a.8.8 0 0 1 .8-.8h6.933a.8.8 0 1 1 0 1.6h-6.933a.8.8 0 0 1-.8-.8m0 4.267a.8.8 0 0 1 .8-.8h3.2a.8.8 0 1 1 0 1.6h-3.2a.8.8 0 0 1-.8-.8m0 4.266a.8.8 0 0 1 .8-.8h1.6a.8.8 0 0 1 0 1.6h-1.6a.8.8 0 0 1-.8-.8" clip-rule="evenodd"/></svg>
